Newaita-dark/apps/16/riot.svg

<svg height="16" viewBox="0 0 16 16" width="16" xmlns="http://www.w3.org/2000/svg" xmlns:xlink="http://www.w3.org/1999/xlink"><linearGradient id="a"><stop offset="0" stop-opacity=".27451"/><stop offset="1" stop-opacity="0"/></linearGradient><linearGradient id="b" gradientUnits="userSpaceOnUse" x1="7.93826" x2="7.93826" xlink:href="#a" y1="14.0169685" y2="14.67849050002"/><linearGradient id="c"><stop offset="0" stop-opacity=".313726"/><stop offset=".222222" stop-opacity=".27451"/><stop offset="1" stop-opacity="0"/></linearGradient><radialGradient id="d" cx="450.908936" cy="189.579361" gradientTransform="matrix(.00000009 -.0390662 -.0703192 -.00000005 18.457827 31.797666)" gradientUnits="userSpaceOnUse" r="21.166656" xlink:href="#c"/><radialGradient id="e" cx="450.908936" cy="189.579361" gradientTransform="matrix(-.00000009 .0390662 .0703192 .00000005 -8.535004 -3.763739)" gradientUnits="userSpaceOnUse" r="21.166656" xlink:href="#c"/><radialGradient id="f" cx="450.908936" cy="189.579361" gradientTransform="matrix(-.00000009 -.0390662 .0703192 -.00000005 -8.535004 31.797666)" gradientUnits="userSpaceOnUse" r="21.166656" xlink:href="#c"/><radialGradient id="g" cx="450.908936" cy="189.579361" gradientTransform="matrix(.00000009 .0390662 -.0703192 .00000005 18.457826 -3.76374)" gradientUnits="userSpaceOnUse" r="21.166656" xlink:href="#c"/><linearGradient id="h" gradientUnits="userSpaceOnUse" x1="4.9813046" x2="4.9813046" y1="14.01696600048" y2="1.44805535241"><stop offset="0" stop-color="#90caf9"/><stop offset="1" stop-color="#bbdefb"/></linearGradient><linearGradient id="i"><stop offset="0" stop-color="#2979ff"/><stop offset="1" stop-color="#448aff"/></linearGradient><linearGradient id="j" gradientUnits="userSpaceOnUse" x1="7.9382592" x2="7.9382592" xlink:href="#i" y1="14.01696600048" y2="1.4480552201"/><linearGradient id="k" gradientUnits="userSpaceOnUse" x1="4.65054449998" x2="4.65054449998" xlink:href="#i" y1="4.09414" y2="1.44805249998"/><linearGradient id="l" gradientUnits="userSpaceOnUse" x1="14.553476" x2="14.553476" xlink:href="#a" y1="14.0169685" y2="14.67849050002"/><radialGradient id="m" cx="450.908936" cy="189.579361" gradientTransform="matrix(.00000009 -.0390662 -.0703192 -.00000005 25.073042 31.797666)" gradientUnits="userSpaceOnUse" r="21.166656" xlink:href="#c"/><radialGradient id="n" cx="450.908936" cy="189.579361" gradientTransform="matrix(-.00000009 .0390662 .0703192 .00000005 -1.919789 -3.763739)" gradientUnits="userSpaceOnUse" r="21.166656" xlink:href="#c"/><radialGradient id="o" cx="450.908936" cy="189.579361" gradientTransform="matrix(-.00000009 -.0390662 .0703192 -.00000005 -1.919789 31.797666)" gradientUnits="userSpaceOnUse" r="21.166656" xlink:href="#c"/><radialGradient id="p" cx="450.908936" cy="189.579361" gradientTransform="matrix(.00000009 .0390662 -.0703192 .00000005 25.073041 -3.76374)" gradientUnits="userSpaceOnUse" r="21.166656" xlink:href="#c"/><linearGradient id="q" gradientTransform="matrix(.0256009 -.017926 .017926 .0256009 -.99751 9.249166)" gradientUnits="userSpaceOnUse" x1="222.69519" x2="368.383606" xlink:href="#i" y1="348.627991" y2="140.56337"/><path d="m4.628906 14.015625h.664063v.664063h-.664063zm0 0" fill="url(#b)"/><path d="m5.292969 14.015625h1.320312v-.660156h-1.320312zm0 0" fill="url(#d)"/><path d="m4.628906 14.015625h-1.320312v.664063h1.320312zm0 0" fill="url(#e)"/><path d="m4.628906 14.015625h-1.320312v-.660156h1.320312zm0 0" fill="url(#f)"/><path d="m5.292969 14.015625h1.320312v.664063h-1.320312zm0 0" fill="url(#g)"/><path d="m4.980469 1.449219c-.914063 0-1.652344.738281-1.652344 1.652343v9.261719c0 .917969.738281 1.652344 1.652344 1.652344.917969 0 1.65625-.734375 1.65625-1.652344v-2.976562h1.984375c2.199218 0 3.96875-1.769531 3.96875-3.96875s-1.769532-3.96875-3.96875-3.96875zm0 0" fill="url(#h)"/><path d="m4.980469 1.449219c-.914063 0-1.652344.738281-1.652344 1.652343v.332032c0-.917969.738281-1.65625 1.652344-1.65625h3.640625c2.140625 0 3.878906 1.683594 3.964844 3.804687 0-.054687.003906-.109375.003906-.164062 0-2.199219-1.769532-3.96875-3.96875-3.96875zm0 0" fill="#fff" fill-opacity=".392157"/><path d="m4.960938 2.316406c-.070313 0-.125.054688-.125.125v10.582032c0 .046874.023437.089843.0625.113281.039062.019531.085937.019531.125 0 .039062-.023438.0625-.066407.0625-.113281v-4.503907h3.515624c1.714844 0 3.101563-1.386719 3.101563-3.101562 0-1.71875-1.386719-3.101563-3.101563-3.101563zm.125.25h3.515624c1.582032 0 2.851563 1.269532 2.851563 2.851563s-1.269531 2.851562-2.851563 2.851562h-3.515624zm0 0" fill="url(#j)"/><path d="m4.980469 1.449219c.914062 0 1.65625.738281 1.65625 1.652343 0 .914063-.742188 1.652344-1.65625 1.652344-.914063 0-1.652344-.738281-1.652344-1.652344 0-.914062.738281-1.652343 1.652344-1.652343zm0 0" fill="url(#k)"/><path d="m12.585938 5.25c-.085938 2.125-1.824219 3.804688-3.964844 3.804688h-1.984375v.332031h1.984375c2.199218 0 3.96875-1.769531 3.96875-3.96875 0-.054688-.003906-.109375-.003906-.167969zm-9.257813 6.78125v.332031c0 .917969.738281 1.652344 1.652344 1.652344.917969 0 1.65625-.734375 1.65625-1.652344v-.332031c0 .917969-.738281 1.65625-1.65625 1.65625-.914063 0-1.652344-.738281-1.652344-1.65625zm0 0" fill-opacity=".235294"/><path d="m11.246094 14.015625h.660156v.664063h-.660156zm0 0" fill="url(#l)"/><path d="m11.90625 14.015625h1.324219v-.660156h-1.324219zm0 0" fill="url(#m)"/><path d="m11.246094 14.015625h-1.324219v.664063h1.324219zm0 0" fill="url(#n)"/><path d="m11.246094 14.015625h-1.324219v-.660156h1.324219zm0 0" fill="url(#o)"/><path d="m11.90625 14.015625h1.324219v.664063h-1.324219zm0 0" fill="url(#p)"/><path d="m159.359782-168.629428c-29.247207 0-52.869951 23.622744-52.869951 52.869951v296.3467c0 29.372195 23.622744 52.869951 52.869951 52.869951 29.372195 0 52.994939-23.497756 52.994939-52.869951v-95.240905h63.493937c70.36828 0 126.987873-56.619593 126.987873-126.987873s-56.619593-126.987873-126.987873-126.987873zm0 0" style="fill:none;stroke-width:3;stroke-linecap:round;stroke-linejoin:round;stroke:#212121;stroke-opacity:.959559" transform="matrix(.031253 0 0 .031253 0 6.719392)"/><path d="m7.246094 6.144531c.746094-.523437 1.777344-.34375 2.300781.40625l3.417969 4.875c.523437.75.339844 1.78125-.40625 2.304688-.75.523437-1.78125.339843-2.304688-.40625l-3.414062-4.878907c-.523438-.746093-.34375-1.777343.40625-2.300781zm0 0" fill="url(#q)"/><path d="m4.980469 1.449219c-.914063 0-1.652344.738281-1.652344 1.652343v.078126c.042969-.882813.761719-1.578126 1.652344-1.578126s1.613281.695313 1.652343 1.578126c0-.027344.003907-.050782.003907-.078126 0-.914062-.738281-1.652343-1.65625-1.652343zm3.222656 4.394531c-.328125-.003906-.664063.09375-.957031.300781-.484375.335938-.730469.882813-.707032 1.429688.023438-.492188.269532-.972657.707032-1.277344.292968-.207031.628906-.304687.957031-.300781.519531.003906 1.023437.25 1.34375.707031l3.417969 4.875c.1875.269531.28125.570313.296875.875.015625-.351563-.078125-.714844-.296875-1.027344l-3.417969-4.875c-.320313-.457031-.824219-.703125-1.34375-.707031zm0 0" fill="#fff" fill-opacity=".392157"/><path d="m3.328125 3.035156v.066406c0 .917969.738281 1.652344 1.652344 1.652344.917969 0 1.65625-.734375 1.65625-1.652344 0-.023437-.003907-.042968-.003907-.066406-.03125.886719-.757812 1.589844-1.652343 1.589844s-1.617188-.703125-1.652344-1.589844zm3.210937 4.398438c-.011718.347656.082032.703125.300782 1.011718l3.414062 4.878907c.527344.75 1.550782.929687 2.304688.40625.476562-.335938.726562-.878907.703125-1.421875-.019531.5-.261719.980468-.703125 1.289062-.753906.527344-1.777344.34375-2.304688-.40625l-3.414062-4.875c-.191406-.269531-.289063-.578125-.300782-.882812zm0 0" fill-opacity=".235294"/><g fill="#212121"><path d="m4.980469 1.402344c-.941407 0-1.699219.757812-1.699219 1.699218 0 .941407.757812 1.699219 1.699219 1.699219.941406 0 1.703125-.757812 1.703125-1.699219 0-.941406-.761719-1.699218-1.703125-1.699218zm0 .09375c.890625 0 1.609375.714844 1.609375 1.605468 0 .890626-.71875 1.605469-1.609375 1.605469s-1.605469-.714843-1.605469-1.605469c0-.890624.714844-1.605468 1.605469-1.605468zm0 0"/><path d="m7.21875 6.105469c-.773438.539062-.957031 1.597656-.417969 2.367187l3.414063 4.878906c.539062.769532 1.597656.957032 2.371094.417969.769531-.542969.957031-1.597656.414062-2.371093l-3.414062-4.875c-.539063-.773438-1.597657-.957032-2.367188-.417969zm.054688.078125c.726562-.511719 1.726562-.335938 2.238281.394531l3.414062 4.875c.511719.730469.335938 1.726563-.394531 2.238281-.730469.511719-1.726562.335938-2.238281-.394531l-3.414063-4.878906c-.511718-.726563-.335937-1.726563.394532-2.234375zm0 0"/></g></svg>

<?xml version="1.0" encoding="UTF-8"?>
<svg xmlns="http://www.w3.org/2000/svg" xmlns:xlink="http://www.w3.org/1999/xlink" width="16px" height="16px" viewBox="0 0 16 16" version="1.1">
<defs>
<linearGradient id="linear0" gradientUnits="userSpaceOnUse" x1="254" y1="233.5" x2="254" y2="254.666672" gradientTransform="matrix(0.031253,0,0,0.031253,-0.00000190753,6.719393)">
<stop offset="0" style="stop-color:rgb(0%,0%,0%);stop-opacity:0.27451;"/>
<stop offset="1" style="stop-color:rgb(0%,0%,0%);stop-opacity:0;"/>
</linearGradient>
<radialGradient id="radial0" gradientUnits="userSpaceOnUse" cx="450.908936" cy="189.579361" fx="450.908936" fy="189.579361" r="21.166656" gradientTransform="matrix(0.0000000870852,-0.0390662,-0.0703192,-0.0000000507693,18.457827,31.797666)">
<stop offset="0" style="stop-color:rgb(0%,0%,0%);stop-opacity:0.313726;"/>
<stop offset="0.222222" style="stop-color:rgb(0%,0%,0%);stop-opacity:0.27451;"/>
<stop offset="1" style="stop-color:rgb(0%,0%,0%);stop-opacity:0;"/>
</radialGradient>
<radialGradient id="radial1" gradientUnits="userSpaceOnUse" cx="450.908936" cy="189.579361" fx="450.908936" fy="189.579361" r="21.166656" gradientTransform="matrix(-0.0000000870852,0.0390662,0.0703192,0.0000000507693,-8.535004,-3.763739)">
<stop offset="0" style="stop-color:rgb(0%,0%,0%);stop-opacity:0.313726;"/>
<stop offset="0.222222" style="stop-color:rgb(0%,0%,0%);stop-opacity:0.27451;"/>
<stop offset="1" style="stop-color:rgb(0%,0%,0%);stop-opacity:0;"/>
</radialGradient>
<radialGradient id="radial2" gradientUnits="userSpaceOnUse" cx="450.908936" cy="189.579361" fx="450.908936" fy="189.579361" r="21.166656" gradientTransform="matrix(-0.0000000870852,-0.0390662,0.0703192,-0.0000000507693,-8.535004,31.797666)">
<stop offset="0" style="stop-color:rgb(0%,0%,0%);stop-opacity:0.313726;"/>
<stop offset="0.222222" style="stop-color:rgb(0%,0%,0%);stop-opacity:0.27451;"/>
<stop offset="1" style="stop-color:rgb(0%,0%,0%);stop-opacity:0;"/>
</radialGradient>
<radialGradient id="radial3" gradientUnits="userSpaceOnUse" cx="450.908936" cy="189.579361" fx="450.908936" fy="189.579361" r="21.166656" gradientTransform="matrix(0.0000000870852,0.0390662,-0.0703192,0.0000000507693,18.457826,-3.76374)">
<stop offset="0" style="stop-color:rgb(0%,0%,0%);stop-opacity:0.313726;"/>
<stop offset="0.222222" style="stop-color:rgb(0%,0%,0%);stop-opacity:0.27451;"/>
<stop offset="1" style="stop-color:rgb(0%,0%,0%);stop-opacity:0;"/>
</radialGradient>
<linearGradient id="linear1" gradientUnits="userSpaceOnUse" x1="680" y1="1695.118164" x2="680" y2="175.118134" gradientTransform="matrix(0.00826902,0,0,0.00826902,-0.641629,0)">
<stop offset="0" style="stop-color:rgb(56.470591%,79.215688%,97.647059%);stop-opacity:1;"/>
<stop offset="1" style="stop-color:rgb(73.333335%,87.058824%,98.431373%);stop-opacity:1;"/>
</linearGradient>
<linearGradient id="linear2" gradientUnits="userSpaceOnUse" x1="960" y1="1695.118164" x2="960" y2="175.118118" gradientTransform="matrix(0.00826902,0,0,0.00826902,0,0)">
<stop offset="0" style="stop-color:rgb(16.078432%,47.450981%,100%);stop-opacity:1;"/>
<stop offset="1" style="stop-color:rgb(26.666668%,54.11765%,100%);stop-opacity:1;"/>
</linearGradient>
<linearGradient id="linear3" gradientUnits="userSpaceOnUse" x1="169.333328" y1="-84" x2="169.333328" y2="-168.666672" gradientTransform="matrix(0.031253,0,0,0.031253,-0.64163,6.719392)">
<stop offset="0" style="stop-color:rgb(16.078432%,47.450981%,100%);stop-opacity:1;"/>
<stop offset="1" style="stop-color:rgb(26.666668%,54.11765%,100%);stop-opacity:1;"/>
</linearGradient>
<linearGradient id="linear4" gradientUnits="userSpaceOnUse" x1="254" y1="233.5" x2="254" y2="254.666672" gradientTransform="matrix(0.031253,0,0,0.031253,6.615214,6.719393)">
<stop offset="0" style="stop-color:rgb(0%,0%,0%);stop-opacity:0.27451;"/>
<stop offset="1" style="stop-color:rgb(0%,0%,0%);stop-opacity:0;"/>
</linearGradient>
<radialGradient id="radial4" gradientUnits="userSpaceOnUse" cx="450.908936" cy="189.579361" fx="450.908936" fy="189.579361" r="21.166656" gradientTransform="matrix(0.0000000870852,-0.0390662,-0.0703192,-0.0000000507693,25.073042,31.797666)">
<stop offset="0" style="stop-color:rgb(0%,0%,0%);stop-opacity:0.313726;"/>
<stop offset="0.222222" style="stop-color:rgb(0%,0%,0%);stop-opacity:0.27451;"/>
<stop offset="1" style="stop-color:rgb(0%,0%,0%);stop-opacity:0;"/>
</radialGradient>
<radialGradient id="radial5" gradientUnits="userSpaceOnUse" cx="450.908936" cy="189.579361" fx="450.908936" fy="189.579361" r="21.166656" gradientTransform="matrix(-0.0000000870852,0.0390662,0.0703192,0.0000000507693,-1.919789,-3.763739)">
<stop offset="0" style="stop-color:rgb(0%,0%,0%);stop-opacity:0.313726;"/>
<stop offset="0.222222" style="stop-color:rgb(0%,0%,0%);stop-opacity:0.27451;"/>
<stop offset="1" style="stop-color:rgb(0%,0%,0%);stop-opacity:0;"/>
</radialGradient>
<radialGradient id="radial6" gradientUnits="userSpaceOnUse" cx="450.908936" cy="189.579361" fx="450.908936" fy="189.579361" r="21.166656" gradientTransform="matrix(-0.0000000870852,-0.0390662,0.0703192,-0.0000000507693,-1.919789,31.797666)">
<stop offset="0" style="stop-color:rgb(0%,0%,0%);stop-opacity:0.313726;"/>
<stop offset="0.222222" style="stop-color:rgb(0%,0%,0%);stop-opacity:0.27451;"/>
<stop offset="1" style="stop-color:rgb(0%,0%,0%);stop-opacity:0;"/>
</radialGradient>
<radialGradient id="radial7" gradientUnits="userSpaceOnUse" cx="450.908936" cy="189.579361" fx="450.908936" fy="189.579361" r="21.166656" gradientTransform="matrix(0.0000000870852,0.0390662,-0.0703192,0.0000000507693,25.073041,-3.76374)">
<stop offset="0" style="stop-color:rgb(0%,0%,0%);stop-opacity:0.313726;"/>
<stop offset="0.222222" style="stop-color:rgb(0%,0%,0%);stop-opacity:0.27451;"/>
<stop offset="1" style="stop-color:rgb(0%,0%,0%);stop-opacity:0;"/>
</radialGradient>
<linearGradient id="linear5" gradientUnits="userSpaceOnUse" x1="222.69519" y1="348.627991" x2="368.383606" y2="140.56337" gradientTransform="matrix(0.0256009,-0.017926,0.017926,0.0256009,-0.99751,9.249166)">
<stop offset="0" style="stop-color:rgb(16.078432%,47.450981%,100%);stop-opacity:1;"/>
<stop offset="1" style="stop-color:rgb(26.666668%,54.11765%,100%);stop-opacity:1;"/>
</linearGradient>
</defs>
<g id="surface1">
<path style=" stroke:none;fill-rule:nonzero;fill:url(#linear0);" d="M 4.628906 14.015625 L 5.292969 14.015625 L 5.292969 14.679688 L 4.628906 14.679688 Z M 4.628906 14.015625 "/>
<path style=" stroke:none;fill-rule:nonzero;fill:url(#radial0);" d="M 5.292969 14.015625 L 6.613281 14.015625 L 6.613281 13.355469 L 5.292969 13.355469 Z M 5.292969 14.015625 "/>
<path style=" stroke:none;fill-rule:nonzero;fill:url(#radial1);" d="M 4.628906 14.015625 L 3.308594 14.015625 L 3.308594 14.679688 L 4.628906 14.679688 Z M 4.628906 14.015625 "/>
<path style=" stroke:none;fill-rule:nonzero;fill:url(#radial2);" d="M 4.628906 14.015625 L 3.308594 14.015625 L 3.308594 13.355469 L 4.628906 13.355469 Z M 4.628906 14.015625 "/>
<path style=" stroke:none;fill-rule:nonzero;fill:url(#radial3);" d="M 5.292969 14.015625 L 6.613281 14.015625 L 6.613281 14.679688 L 5.292969 14.679688 Z M 5.292969 14.015625 "/>
<path style=" stroke:none;fill-rule:nonzero;fill:url(#linear1);" d="M 4.980469 1.449219 C 4.066406 1.449219 3.328125 2.1875 3.328125 3.101562 L 3.328125 12.363281 C 3.328125 13.28125 4.066406 14.015625 4.980469 14.015625 C 5.898438 14.015625 6.636719 13.28125 6.636719 12.363281 L 6.636719 9.386719 L 8.621094 9.386719 C 10.820312 9.386719 12.589844 7.617188 12.589844 5.417969 C 12.589844 3.21875 10.820312 1.449219 8.621094 1.449219 Z M 4.980469 1.449219 "/>
<path style=" stroke:none;fill-rule:nonzero;fill:rgb(100%,100%,100%);fill-opacity:0.392157;" d="M 4.980469 1.449219 C 4.066406 1.449219 3.328125 2.1875 3.328125 3.101562 L 3.328125 3.433594 C 3.328125 2.515625 4.066406 1.777344 4.980469 1.777344 L 8.621094 1.777344 C 10.761719 1.777344 12.5 3.460938 12.585938 5.582031 C 12.585938 5.527344 12.589844 5.472656 12.589844 5.417969 C 12.589844 3.21875 10.820312 1.449219 8.621094 1.449219 Z M 4.980469 1.449219 "/>
<path style=" stroke:none;fill-rule:nonzero;fill:url(#linear2);" d="M 4.960938 2.316406 C 4.890625 2.316406 4.835938 2.371094 4.835938 2.441406 L 4.835938 13.023438 C 4.835938 13.070312 4.859375 13.113281 4.898438 13.136719 C 4.9375 13.15625 4.984375 13.15625 5.023438 13.136719 C 5.0625 13.113281 5.085938 13.070312 5.085938 13.023438 L 5.085938 8.519531 L 8.601562 8.519531 C 10.316406 8.519531 11.703125 7.132812 11.703125 5.417969 C 11.703125 3.699219 10.316406 2.316406 8.601562 2.316406 Z M 5.085938 2.566406 L 8.601562 2.566406 C 10.183594 2.566406 11.453125 3.835938 11.453125 5.417969 C 11.453125 7 10.183594 8.269531 8.601562 8.269531 L 5.085938 8.269531 Z M 5.085938 2.566406 "/>
<path style=" stroke:none;fill-rule:nonzero;fill:url(#linear3);" d="M 4.980469 1.449219 C 5.894531 1.449219 6.636719 2.1875 6.636719 3.101562 C 6.636719 4.015625 5.894531 4.753906 4.980469 4.753906 C 4.066406 4.753906 3.328125 4.015625 3.328125 3.101562 C 3.328125 2.1875 4.066406 1.449219 4.980469 1.449219 Z M 4.980469 1.449219 "/>
<path style=" stroke:none;fill-rule:nonzero;fill:rgb(0%,0%,0%);fill-opacity:0.235294;" d="M 12.585938 5.25 C 12.5 7.375 10.761719 9.054688 8.621094 9.054688 L 6.636719 9.054688 L 6.636719 9.386719 L 8.621094 9.386719 C 10.820312 9.386719 12.589844 7.617188 12.589844 5.417969 C 12.589844 5.363281 12.585938 5.308594 12.585938 5.25 Z M 3.328125 12.03125 L 3.328125 12.363281 C 3.328125 13.28125 4.066406 14.015625 4.980469 14.015625 C 5.898438 14.015625 6.636719 13.28125 6.636719 12.363281 L 6.636719 12.03125 C 6.636719 12.949219 5.898438 13.6875 4.980469 13.6875 C 4.066406 13.6875 3.328125 12.949219 3.328125 12.03125 Z M 3.328125 12.03125 "/>
<path style=" stroke:none;fill-rule:nonzero;fill:url(#linear4);" d="M 11.246094 14.015625 L 11.90625 14.015625 L 11.90625 14.679688 L 11.246094 14.679688 Z M 11.246094 14.015625 "/>
<path style=" stroke:none;fill-rule:nonzero;fill:url(#radial4);" d="M 11.90625 14.015625 L 13.230469 14.015625 L 13.230469 13.355469 L 11.90625 13.355469 Z M 11.90625 14.015625 "/>
<path style=" stroke:none;fill-rule:nonzero;fill:url(#radial5);" d="M 11.246094 14.015625 L 9.921875 14.015625 L 9.921875 14.679688 L 11.246094 14.679688 Z M 11.246094 14.015625 "/>
<path style=" stroke:none;fill-rule:nonzero;fill:url(#radial6);" d="M 11.246094 14.015625 L 9.921875 14.015625 L 9.921875 13.355469 L 11.246094 13.355469 Z M 11.246094 14.015625 "/>
<path style=" stroke:none;fill-rule:nonzero;fill:url(#radial7);" d="M 11.90625 14.015625 L 13.230469 14.015625 L 13.230469 14.679688 L 11.90625 14.679688 Z M 11.90625 14.015625 "/>
<path style="fill:none;stroke-width:3;stroke-linecap:round;stroke-linejoin:round;stroke:rgb(12.941177%,12.941177%,12.941177%);stroke-opacity:0.959559;stroke-miterlimit:4;" d="M 159.359782 -168.629428 C 130.112575 -168.629428 106.489831 -145.006684 106.489831 -115.759477 L 106.489831 180.587223 C 106.489831 209.959418 130.112575 233.457174 159.359782 233.457174 C 188.731977 233.457174 212.354721 209.959418 212.354721 180.587223 L 212.354721 85.346318 L 275.848658 85.346318 C 346.216938 85.346318 402.836531 28.726725 402.836531 -41.641555 C 402.836531 -112.009835 346.216938 -168.629428 275.848658 -168.629428 Z M 159.359782 -168.629428 " transform="matrix(0.031253,0,0,0.031253,0,6.719392)"/>
<path style=" stroke:none;fill-rule:nonzero;fill:url(#linear5);" d="M 7.246094 6.144531 C 7.992188 5.621094 9.023438 5.800781 9.546875 6.550781 L 12.964844 11.425781 C 13.488281 12.175781 13.304688 13.207031 12.558594 13.730469 C 11.808594 14.253906 10.777344 14.070312 10.253906 13.324219 L 6.839844 8.445312 C 6.316406 7.699219 6.496094 6.667969 7.246094 6.144531 Z M 7.246094 6.144531 "/>
<path style=" stroke:none;fill-rule:nonzero;fill:rgb(100%,100%,100%);fill-opacity:0.392157;" d="M 4.980469 1.449219 C 4.066406 1.449219 3.328125 2.1875 3.328125 3.101562 C 3.328125 3.128906 3.328125 3.152344 3.328125 3.179688 C 3.371094 2.296875 4.089844 1.601562 4.980469 1.601562 C 5.871094 1.601562 6.59375 2.296875 6.632812 3.179688 C 6.632812 3.152344 6.636719 3.128906 6.636719 3.101562 C 6.636719 2.1875 5.898438 1.449219 4.980469 1.449219 Z M 8.203125 5.84375 C 7.875 5.839844 7.539062 5.9375 7.246094 6.144531 C 6.761719 6.480469 6.515625 7.027344 6.539062 7.574219 C 6.5625 7.082031 6.808594 6.601562 7.246094 6.296875 C 7.539062 6.089844 7.875 5.992188 8.203125 5.996094 C 8.722656 6 9.226562 6.246094 9.546875 6.703125 L 12.964844 11.578125 C 13.152344 11.847656 13.246094 12.148438 13.261719 12.453125 C 13.277344 12.101562 13.183594 11.738281 12.964844 11.425781 L 9.546875 6.550781 C 9.226562 6.09375 8.722656 5.847656 8.203125 5.84375 Z M 8.203125 5.84375 "/>
<path style=" stroke:none;fill-rule:nonzero;fill:rgb(0%,0%,0%);fill-opacity:0.235294;" d="M 3.328125 3.035156 C 3.328125 3.058594 3.328125 3.078125 3.328125 3.101562 C 3.328125 4.019531 4.066406 4.753906 4.980469 4.753906 C 5.898438 4.753906 6.636719 4.019531 6.636719 3.101562 C 6.636719 3.078125 6.632812 3.058594 6.632812 3.035156 C 6.601562 3.921875 5.875 4.625 4.980469 4.625 C 4.085938 4.625 3.363281 3.921875 3.328125 3.035156 Z M 6.539062 7.433594 C 6.527344 7.78125 6.621094 8.136719 6.839844 8.445312 L 10.253906 13.324219 C 10.78125 14.074219 11.804688 14.253906 12.558594 13.730469 C 13.035156 13.394531 13.285156 12.851562 13.261719 12.308594 C 13.242188 12.808594 13 13.289062 12.558594 13.597656 C 11.804688 14.125 10.78125 13.941406 10.253906 13.191406 L 6.839844 8.316406 C 6.648438 8.046875 6.550781 7.738281 6.539062 7.433594 Z M 6.539062 7.433594 "/>
<path style=" stroke:none;fill-rule:nonzero;fill:rgb(12.941177%,12.941177%,12.941177%);fill-opacity:1;" d="M 4.980469 1.402344 C 4.039062 1.402344 3.28125 2.160156 3.28125 3.101562 C 3.28125 4.042969 4.039062 4.800781 4.980469 4.800781 C 5.921875 4.800781 6.683594 4.042969 6.683594 3.101562 C 6.683594 2.160156 5.921875 1.402344 4.980469 1.402344 Z M 4.980469 1.496094 C 5.871094 1.496094 6.589844 2.210938 6.589844 3.101562 C 6.589844 3.992188 5.871094 4.707031 4.980469 4.707031 C 4.089844 4.707031 3.375 3.992188 3.375 3.101562 C 3.375 2.210938 4.089844 1.496094 4.980469 1.496094 Z M 4.980469 1.496094 "/>
<path style=" stroke:none;fill-rule:nonzero;fill:rgb(12.941177%,12.941177%,12.941177%);fill-opacity:1;" d="M 7.21875 6.105469 C 6.445312 6.644531 6.261719 7.703125 6.800781 8.472656 L 10.214844 13.351562 C 10.753906 14.121094 11.8125 14.308594 12.585938 13.769531 C 13.355469 13.226562 13.542969 12.171875 13 11.398438 L 9.585938 6.523438 C 9.046875 5.75 7.988281 5.566406 7.21875 6.105469 Z M 7.273438 6.183594 C 8 5.671875 9 5.847656 9.511719 6.578125 L 12.925781 11.453125 C 13.4375 12.183594 13.261719 13.179688 12.53125 13.691406 C 11.800781 14.203125 10.804688 14.027344 10.292969 13.296875 L 6.878906 8.417969 C 6.367188 7.691406 6.542969 6.691406 7.273438 6.183594 Z M 7.273438 6.183594 "/>
</g>
</svg>
